X: 37506
T: Sligo, The
R: reel
M: 4/4
K: Adorian
cBcA BcBG|AcBA GE E2|c3A B3G|BedB A3B|
c3A B3G|AcBA GE E2|GABd efge|dBGB cA A2||
eA A2 edef|gedB GA (3Bcd|eA A2 edef|gedB A2 (3Bcd|
eA A2 edef|gedB GA (3Bcd|edeg a2 ba|gedB A2 (3Bcd||
ea a2 bgaf|gedB A2 (3Bcd|ea a2 bgaf|gedB G2 (3Bcd|
ea a2 bgaf|gedB A2 (3Bcd|edeg a2 ba|gedB BA A2||

